X:61
T:Burford Races
M:6/8
L:1/8
B:Thompson's Compleat Collection of 200 Favourite Country Dances, vol. 3 (London, 1773)
Z:Transcribed and edited by Flynn Titford-Mock, 2007
Z:abc's:AK/Fiddler's Companion
K:D
dfa agf | efd cBA | Bcd efg | fed cBA | dfa agf | efd cBA | Bgf edc | d3 D3 :|
|: DFA DFA | EGB EGB | DFA DFA | dcB AFD | DFA DFA | EGB EGB | ced cAc | d3 D3 :|

